X: 39204
T: Swiss, The
R: reel
M: 4/4
K: Gmajor
Bd||eddB d2 Bd|eddB AGBd|eddB dBGB|ABAF G2 Bd|
eddB d2 Bd|eddB AGBd|eddB dBGB|ABAF G3B||
DBBA B2 GA|BGAG EGDB|DBBA BAGB|ABAF G3B|
DBBA B2 GA|BGAG EGDB|DBBA BAGB|ABAF G2 G2||

